X: 1302
T: Mrs Fleming of Moness Reel
%R: reel
B: Niel Gow & Sons "A Collection of Strathspey Reels, etc." v.1 p.30 #2
Z: 2022 John Chambers <jc:trillian.mit.edu>
M: C
L: 1/8
K: Bb
% - - - - - - - - - -
V: 1 staves=2
F |\
DB,DF TB2AG | FB, (G/F/E/D/ E)CCF | DB,DF {c}TB2AG | (A/B/c) FA BB,B, :: B | Bfdf Bfdf |
FcAc FcAc | Bfdf Bfdf | (b/a/g/f/) ge dBB :: F | DB,FB, GB,FB, | DB, (G/F/E/D/ E)CCF | DB,FD GB,FA |
B(GTFE) DB,B, :: g | fB (d/c/B) fBbB | fB (e/d/c/B/) cGGe | fB (e/d/c/B/) fBbB | A(TGFE) DB,B, :|
% - - - - - - - - - -
% Voice 2 preserves the staff layout in the book.
V: 2 clef=bass middle=d
z | B2B2 B2B2 | B2B2 c2c2 | B2B2 B2B2 | f2F2 B2B :: z | b2b2 b2b2 |
f2f2 f2f2 | b2b2 b2b2 | f2f2 b2B :: z | B2B2 B2B2 | B2B2 c2c2 | B2B2 B2B2 |
B2F2 B2B :: z | b2b2 b2b2 | b2b2 c'2c'2 | b2b2 b2b2 | f2F2 B2B :|


